X:1
T:Psalm 13
T:V 4
L:1/4
M:14/4
I:linebreak $
K:C
V:1 treble nm="Pipe Organ" snm="Org."
V:1
 D2 D D F F G G A3 z |$ A2 B c A d c2 B2 A2 z2 |$ A2 G F E F G A G2 F2 z2 |$ %3
w: Laat hul- le wat in oor- med my|ver- volg en met hul swaard be- stry-|laat hul nie roem op meer- d're krag- te,|
[M:18/4] F2 G G A2 c2 c B A2 F2 E3 z |$[M:14/4] A2 G E G2 F2 D E D4 |] %5
w: of sma- lend sê in hul ge- d- ag- te:|"Ons het oor- win, daar strui- kel hy!"|

